icons/lines/grid-lock.svg

<svg xmlns="http://www.w3.org/2000/svg" width="24" height="24" viewBox="0 0 24 24" fill="none" stroke="currentColor" stroke-width="2" stroke-linecap="round" stroke-linejoin="round" >
  <path d="M22 11V9C22 4 20 2 15 2H9C4 2 2 4 2 9V15C2 20 4 22 9 22H10"/>
  <path d="M2.02979 8.5H21.9998"/>
  <path d="M2.02979 15.5H11.9998"/>
  <path d="M8.50977 21.99V2.01001"/>
  <path d="M15.5098 11.99V2.01001"/>
  <path d="M15.6001 17.2V16.4C15.6001 15.07 16.0001 14 18.0001 14C20.0001 14 20.4001 15.07 20.4001 16.4V17.2"/>
  <path d="M20 22H16C14.4 22 14 21.6 14 20V19.2C14 17.6 14.4 17.2 16 17.2H20C21.6 17.2 22 17.6 22 19.2V20C22 21.6 21.6 22 20 22Z"/>
  </svg>

<svg xmlns="http://www.w3.org/2000/svg" width="24" height="24" viewBox="0 0 24 24" fill="none" stroke="currentColor" stroke-width="2" stroke-linecap="round" stroke-linejoin="round">
  <path d="M15.51 11.99V2.01" />
  <path d="M15.6 17.2v-.8c0-1.33.4-2.4 2.4-2.4s2.4 1.07 2.4 2.4v.8" />
  <path d="M16 22c-1.6 0-2-.4-2-2v-.8c0-1.6.4-2 2-2h4c1.6 0 2 .4 2 2v.8c0 1.6-.4 2-2 2z" />
  <path d="M2.03 15.5H12" />
  <path d="M2.03 8.5H22" />
  <path d="M22 11V9c0-5-2-7-7-7H9C4 2 2 4 2 9v6c0 5 2 7 7 7h1" />
  <path d="M8.51 21.99V2.01" />
</svg>
